X: 1
T: Cold Frosty Morning 3
R: reel
Z: 2019 John Chambers <jc:trillian.mit.edu>
B: Krassen (Appalachian Fiddle), 1973; pp. 38-39.
B: Brody (Fiddler's Fakebook), 1983; p. 114.
S: Printed MS of unknown origin.
M: 2/4
L: 1/16
K: Ador
|:\
"Am"EDEG A2A2 | ABcd e2A2 | "G"B3A G2D2 | GABc d4 |
"Am"EDEG A2A2 | ABcd e2ed | cBAc "G"BAGB | A3B A4 :|
|:\
"Am"e2a2 a4 | abag e4 | "Em"edef g2g2 | "Am"edcd e4 |
"Am"A2AA c2cc | "G"d2dd "Am"e2ed | cBAc "G"BAGB | A3B A4 :|
